X: 22820
T: Lanton Road
R: barndance
M: 4/4
K: Gmajor
B/A/G|DGBG EGBc|BAFA G2 B/A/G|DGBG EGBg|edBA G2B/A/G|
DGBG EGBc|BAFA G2 B/A/G|DGBG EGBb|gedB G2B/c/d|
|:g2gB G2B/c/d|gdBA G2B/c/d|~g3a bgaf|1 gedB G2B/c/d:|2 gedB G2||

